docs/images/icon.svg

<svg viewBox="0 0 594 332.8" xmlns="http://www.w3.org/2000/svg"><path d="m159.3 264.5a95 95 0 0 1 -85-94.5v-1.6l-35.2 13.7-36.1-14v1.9a166.29 166.29 0 0 0 156.6 166l13.7-35.4z" transform="translate(-3 -3.7)"/><path d="m74.7 161.1a95.09 95.09 0 0 1 94.6-86.2c1.2 0 2.3 0 3.5.1l-13.7-35.2 14-36.1h-3.8a166.35 166.35 0 0 0 -166.1 157.3l35.9 13.9z" transform="translate(-3 -3.7)"/><path d="m263 176.6-1.3.5z"/><g transform="translate(-3 -3.7)"><path d="m335.3 180.5-34.8-13.5-34 13.2-.5.2-1.3.5v.1l-1 .4a95.09 95.09 0 0 1 -94.4 83.8h-2.7l13.8 35.7-13.8 35.6h2.7a166.2 166.2 0 0 0 130.7-63.4v-.1a166.71 166.71 0 0 0 35.3-92.5z"/><path d="m458.8 6.1a164 164 0 0 0 -28.1-2.4 166.19 166.19 0 0 0 -166.3 166.3v3.8l36.1-14 35.1 13.6v-3.5a95 95 0 0 1 95-95 106.91 106.91 0 0 1 12.7.8l21.1-31.3z"/><path d="m594.5 198.8a171.34 171.34 0 0 0 2.5-28.8 166.34 166.34 0 0 0 -131.3-162.6l5.7 38.7-20.9 31a95 95 0 0 1 75.2 93 103.58 103.58 0 0 1 -.8 12.5l32.2 21.8z"/></g></svg>

<svg id="pipeline-drawing" xmlns="http://www.w3.org/2000/svg" viewBox="0 0 594 332.8"><title>infinity</title><path d="M159.3,264.5a95,95,0,0,1-85-94.5v-1.6L39.1,182.1,3,168.1V170A166.29,166.29,0,0,0,159.6,336l13.7-35.4Z" transform="translate(-3 -3.7)"/><path d="M74.7,161.1a95.09,95.09,0,0,1,94.6-86.2c1.2,0,2.3,0,3.5.1L159.1,39.8l14-36.1h-3.8A166.35,166.35,0,0,0,3.2,161l35.9,13.9Z" transform="translate(-3 -3.7)"/><polygon points="263 176.6 261.7 177.1 261.7 177.1 263 176.6"/><path d="M264.7,180.8h0v0Z" transform="translate(-3 -3.7)"/><path d="M335.3,180.5,300.5,167l-34,13.2h0l-.5.2-1.3.5v.1h0l-1,.4a95.09,95.09,0,0,1-94.4,83.8h-2.7l13.8,35.7-13.8,35.6h2.7A166.2,166.2,0,0,0,300,273.1V273A166.71,166.71,0,0,0,335.3,180.5Z" transform="translate(-3 -3.7)"/><path d="M264.7,180.7Z" transform="translate(-3 -3.7)"/><path d="M264.4,173.8Z" transform="translate(-3 -3.7)"/><path d="M264.4,173.9Z" transform="translate(-3 -3.7)"/><path d="M458.8,6.1a164,164,0,0,0-28.1-2.4A166.19,166.19,0,0,0,264.4,170v3.8l36.1-14,35.1,13.6v-3.5a95,95,0,0,1,95-95,106.91,106.91,0,0,1,12.7.8l21.1-31.3Z" transform="translate(-3 -3.7)"/><path d="M594.5,198.8A171.34,171.34,0,0,0,597,170,166.34,166.34,0,0,0,465.7,7.4l5.7,38.7-20.9,31a95,95,0,0,1,75.2,93,103.58,103.58,0,0,1-.8,12.5l32.2,21.8Z" transform="translate(-3 -3.7)"/></svg>
